Origami/64x64/apps/swatchbooker.svg

<svg width="64" height="64" version="1.1" viewBox="0 0 64 64" xmlns="http://www.w3.org/2000/svg">
 <path d="m31.375 9.77722c-3.181758 0.192609-6.178374 1.901203-7.875 4.839844l-18.203125 31.523436c-0.8848866 1.53267-1.2543954 3.205486-1.25 4.859376h15.953125v8.078124c1.036282-0.766904 1.935868-1.750652 2.621094-2.9375l18.199218-31.523436c2.7146-4.701826 1.036062-10.718282-3.761718-13.488282-1.799168-1.03875-3.774538-1.467127-5.683594-1.351562z" style="opacity:.2"/>
 <path d="m45.984376 22.914094c-1.892182-0.15016-3.83838 0.24765-5.601564 1.265626l-31.523437 18.199218c-3.1656268 1.827676-4.8592986 5.170296-4.8125 8.621094h15.953125v8.042968l30.382812-17.542968c4.701826-2.7146 6.258282-8.760814 3.488282-13.558594-1.73125-2.998612-4.733082-4.777078-7.886718-5.027344z" style="opacity:.2"/>
 <rect x="4" y="41" width="56" height="20" rx="9.8" ry="10" style="opacity:.2"/>
 <path d="m14 4c-5.54 0-10 4.3715812-10 9.800781v36.199219h16v8.007812c2.418254-1.785506 4-4.599638 4-7.808594v-36.398437c0-5.4291998-4.46-9.800781-10-9.800781z" style="fill:#4f4f4f"/>
 <path d="m14 4c-5.54 0-10 4.3715814-10 9.800781v1c0-5.4291994 4.46-9.800781 10-9.800781s10 4.3715816 10 9.800781v-1c0-5.4291996-4.46-9.800781-10-9.800781z" style="fill:#ffffff;opacity:.1"/>
 <path d="m31.375 8.7773438c-3.181758 0.1926088-6.178374 1.9012032-7.875 4.8398442l-18.203125 31.523436c-0.8848866 1.53267-1.2543954 3.205486-1.25 4.859376h15.953125v8.078124c1.036282-0.766904 1.935868-1.750652 2.621094-2.9375l18.199218-31.523436c2.7146-4.701826 1.036062-10.718282-3.761718-13.488282-1.799168-1.0387498-3.774538-1.4671276-5.683594-1.3515622z" style="fill:#4d4e99"/>
 <path d="m45.984376 21.914062c-1.892182-0.15016-3.83838 0.24765-5.601564 1.265626l-31.523437 18.199218c-3.1656268 1.827676-4.8592986 5.170296-4.8125 8.621094h15.953125v8.042968l30.382812-17.542968c4.701826-2.7146 6.258282-8.760814 3.488282-13.558594-1.73125-2.998612-4.733082-4.777078-7.886718-5.027344z" style="fill:#e74949"/>
 <rect x="4" y="40" width="56" height="20" rx="9.8" ry="10" style="fill:#ffc255"/>
 <circle cx="14" cy="51" r="4" style="opacity:.2"/>
 <circle cx="14" cy="50" r="4" style="fill:#ffffff"/>
 <path d="m32.09375 8.7597656c-0.240231-0.0026823-0.480118 0.0031325-0.71875 0.0175782-3.181758 0.1926087-6.178374 1.9012032-7.875 4.8398442l-18.203125 31.523437c-0.8848866 1.53267-1.2543954 3.205485-1.25 4.859375h0.0546875c0.121277-1.321976 0.4885129-2.635161 1.1953125-3.859375l18.203125-31.523437c1.696626-2.938642 4.693242-4.6472355 7.875-4.8398442 1.909056-0.1155654 3.884426 0.3128122 5.683594 1.3515622 3.081287 1.778983 4.866409 4.897638 5.037109 8.146485 0.182359-3.597083-1.640313-7.185343-5.037109-9.146485-1.574272-0.9089058-3.283229-1.3503643-4.964844-1.3691404z" style="fill:#ffffff;opacity:.1"/>
 <path d="m45.273438 21.882812c-1.664235-0.010534-3.347839 0.406146-4.890626 1.296876l-31.523437 18.199218c-3.1656268 1.827676-4.8592986 5.170296-4.8125 8.621094h0.0507812c0.2606962-3.084703 1.9035385-5.970922 4.7617188-7.621094l31.523437-18.199218c1.763185-1.017976 3.709381-1.415785 5.601563-1.265626 3.153636 0.250266 6.155469 2.028732 7.886719 5.027344 0.842462 1.459187 1.280173 3.034405 1.355468 4.595703 0.097568-1.881533-0.332587-3.824021-1.355468-5.595703-1.73125-2.998612-4.733083-4.777078-7.886719-5.027344-0.236523-0.018769-0.47319-0.029745-0.710937-0.03125z" style="fill:#ffffff;opacity:.1"/>
 <path d="m13.800781 40c-5.4291999 0-9.800781 4.46-9.800781 10 0 0.168849 0.0173642 0.333254 0.0253906 0.5 0.2553239-5.304281 4.5116622-9.5 9.7753904-9.5h36.398438c5.263728 0 9.520066 4.195719 9.77539 9.5 0.008027-0.166746 0.025391-0.331151 0.025391-0.5 0-5.54-4.371581-10-9.800781-10h-36.398438z" style="fill:#ffffff;opacity:.1"/>
</svg>

<svg xmlns="http://www.w3.org/2000/svg" width="64" height="64" version="1.1" viewBox="0 0 64 64">
 <path style="opacity:0.2" d="M 31.375,9.77722 C 28.193242,9.969829 25.196626,11.678423 23.5,14.617064 L 5.296875,46.1405 c -0.8848866,1.53267 -1.2543954,3.205486 -1.25,4.859376 l 15.953125,0 0,8.078124 c 1.036282,-0.766904 1.935868,-1.750652 2.621094,-2.9375 L 40.820312,24.617064 C 43.534912,19.915238 41.856374,13.898782 37.058594,11.128782 35.259426,10.090032 33.284056,9.661655 31.375,9.77722 Z"/>
 <path style="opacity:0.2" d="m 45.984376,22.914094 c -1.892182,-0.15016 -3.83838,0.24765 -5.601564,1.265626 L 8.859375,42.378938 c -3.1656268,1.827676 -4.8592986,5.170296 -4.8125,8.621094 L 20,51.000032 20,59.043 50.382812,41.500032 c 4.701826,-2.7146 6.258282,-8.760814 3.488282,-13.558594 -1.73125,-2.998612 -4.733082,-4.777078 -7.886718,-5.027344 z"/>
 <rect style="opacity:0.2" width="56" height="20" x="4" y="41" rx="9.8" ry="10"/>
 <path style="fill:#4f4f4f" d="M 14,4 C 8.46,4 4,8.3715812 4,13.800781 L 4,50 l 16,0 0,8.007812 c 2.418254,-1.785506 4,-4.599638 4,-7.808594 L 24,13.800781 C 24,8.3715812 19.54,4 14,4 Z"/>
 <path style="opacity:0.1;fill:#ffffff" d="M 14 4 C 8.46 4 4 8.3715814 4 13.800781 L 4 14.800781 C 4 9.3715816 8.46 5 14 5 C 19.54 5 24 9.3715816 24 14.800781 L 24 13.800781 C 24 8.3715814 19.54 4 14 4 z"/>
 <path style="fill:#4d4e99" d="M 31.375,8.7773438 C 28.193242,8.9699526 25.196626,10.678547 23.5,13.617188 L 5.296875,45.140624 C 4.4119884,46.673294 4.0424796,48.34611 4.046875,50 L 20,50 l 0,8.078124 c 1.036282,-0.766904 1.935868,-1.750652 2.621094,-2.9375 L 40.820312,23.617188 C 43.534912,18.915362 41.856374,12.898906 37.058594,10.128906 35.259426,9.0901562 33.284056,8.6617784 31.375,8.7773438 Z"/>
 <path style="fill:#e74949" d="m 45.984376,21.914062 c -1.892182,-0.15016 -3.83838,0.24765 -5.601564,1.265626 L 8.859375,41.378906 C 5.6937482,43.206582 4.0000764,46.549202 4.046875,50 L 20,50 20,58.042968 50.382812,40.5 c 4.701826,-2.7146 6.258282,-8.760814 3.488282,-13.558594 -1.73125,-2.998612 -4.733082,-4.777078 -7.886718,-5.027344 z"/>
 <rect style="fill:#ffc255" width="56" height="20" x="4" y="40" rx="9.8" ry="10"/>
 <circle style="opacity:0.2" cx="14" cy="51" r="4"/>
 <circle style="fill:#ffffff" cx="14" cy="50" r="4"/>
 <path style="opacity:0.1;fill:#ffffff" d="M 32.09375 8.7597656 C 31.853519 8.7570833 31.613632 8.7628981 31.375 8.7773438 C 28.193242 8.9699525 25.196626 10.678547 23.5 13.617188 L 5.296875 45.140625 C 4.4119884 46.673295 4.0424796 48.34611 4.046875 50 L 4.1015625 50 C 4.2228395 48.678024 4.5900754 47.364839 5.296875 46.140625 L 23.5 14.617188 C 25.196626 11.678546 28.193242 9.9699525 31.375 9.7773438 C 33.284056 9.6617784 35.259426 10.090156 37.058594 11.128906 C 40.139881 12.907889 41.925003 16.026544 42.095703 19.275391 C 42.278062 15.678308 40.45539 12.090048 37.058594 10.128906 C 35.484322 9.2200002 33.775365 8.7785417 32.09375 8.7597656 z"/>
 <path style="opacity:0.1;fill:#ffffff" d="M 45.273438 21.882812 C 43.609203 21.872278 41.925599 22.288958 40.382812 23.179688 L 8.859375 41.378906 C 5.6937482 43.206582 4.0000764 46.549202 4.046875 50 L 4.0976562 50 C 4.3583524 46.915297 6.0011947 44.029078 8.859375 42.378906 L 40.382812 24.179688 C 42.145997 23.161712 44.092193 22.763903 45.984375 22.914062 C 49.138011 23.164328 52.139844 24.942794 53.871094 27.941406 C 54.713556 29.400593 55.151267 30.975811 55.226562 32.537109 C 55.32413 30.655576 54.893975 28.713088 53.871094 26.941406 C 52.139844 23.942794 49.138011 22.164328 45.984375 21.914062 C 45.747852 21.895293 45.511185 21.884317 45.273438 21.882812 z"/>
 <path style="opacity:0.1;fill:#ffffff" d="M 13.800781 40 C 8.3715811 40 4 44.46 4 50 C 4 50.168849 4.0173642 50.333254 4.0253906 50.5 C 4.2807145 45.195719 8.5370528 41 13.800781 41 L 50.199219 41 C 55.462947 41 59.719285 45.195719 59.974609 50.5 C 59.982636 50.333254 60 50.168849 60 50 C 60 44.46 55.628419 40 50.199219 40 L 13.800781 40 z"/>
</svg>
